X:20
T:My Fairey And My Forey
%%score 1 { 2 | 3 }
L:1/8
Q:1/4=80
M:4/4
I:linebreak $
K:F
V:1 treble nm="Violin"
V:2 treble nm="Piano"
V:3 bass 
V:1
F>A FA ccFC | F>A cc d2 c2 |$ f>c dA ccFA | c>d cA G2 F2 |$ F>A FA ccFC | F>A cc d2 c2 |$ 
w: Have you an- y bread and wine, my|fair- ey and my for- ey?|Have you an- y bread and wine, with-|in the gold- en stor- ey?|Yes, we have some brad and wine, my|fair- ey and my for- ey,|
w: Let us have a pint of it, my|fair- ey and my for- ey,|Let us have a pint of it, with-|in the gold- en stor- ey.|Take your pint and go your way, my|fair- ey and my for- ey,|
f>c dA ccFA | c>d cA G2 F2 |] 
w: Yes, we have some bread and wine, with-|in the gold- en stor- ey.|
w: Take your pint and go your way, with-|in the gold- en stor- ey.|
V:2
F>A FA [Ac][Ac]FC | F>A [Ac][Ac] [FBd]2 [FAc]2 |$ f>c dA ccFA | [Ac]>d [Ac][FA] [B,EG]2 [A,CF]2 |$ 
F>A FA [Ac][Ac]FC | F>A [Ac][Ac] [FBd]2 [FAc]2 |$ f>c dA ccFA | [Ac]>d [Ac][FA] [B,EG]2 [A,CF]2 |] 
V:3
F,,2 [C,A,]2 F,,2 [C,A,]2 | F,,2 [C,A,]2 [B,,F,B,]2 [F,,C,F,]2 |$ F,,2 [C,A,]2 F,,2 [C,A,]2 | 
F,,2 [C,A,]2 [C,,G,,C,]2 [F,,C,F,]2 |$ F,,2 [C,A,]2 F,,2 [C,A,]2 | 
F,,2 [C,A,]2 [B,,F,B,]2 [F,,C,F,]2 |$ F,,2 [C,A,]2 F,,2 [C,A,]2 | 
F,,2 [C,A,]2 [C,,G,,C,]2 [F,,C,F,]2 |] 



